src/site/assets/img/VCL-icon-white.svg

<?xml version="1.0" encoding="UTF-8"?>
<svg width="96px" height="60px" viewBox="0 0 96 60" version="1.1" xmlns="http://www.w3.org/2000/svg" xmlns:xlink="http://www.w3.org/1999/xlink">
    <!-- Generator: Sketch 50.2 (55047) - http://www.bohemiancoding.com/sketch -->
    <title>VCL-icon-white</title>
    <desc>Created with Sketch.</desc>
    <defs></defs>
    <g id="VCL-icon-white" stroke="none" stroke-width="1" fill="none" fill-rule="evenodd">
        <path d="M58,14 C54.6862915,14 52,11.3137085 52,8 C52,4.6862915 54.6862915,2 58,2 C61.3137085,2 64,4.6862915 64,8 C64,11.3137085 61.3137085,14 58,14 Z M74,14 C70.6862915,14 68,11.3137085 68,8 C68,4.6862915 70.6862915,2 74,2 C77.3137085,2 80,4.6862915 80,8 C80,11.3137085 77.3137085,14 74,14 Z M90,14 C86.6862915,14 84,11.3137085 84,8 C84,4.6862915 86.6862915,2 90,2 C93.3137085,2 96,4.6862915 96,8 C96,11.3137085 93.3137085,14 90,14 Z M58,30 C54.6862915,30 52,27.3137085 52,24 C52,20.6862915 54.6862915,18 58,18 C61.3137085,18 64,20.6862915 64,24 C64,27.3137085 61.3137085,30 58,30 Z M74,30 C70.6862915,30 68,27.3137085 68,24 C68,20.6862915 70.6862915,18 74,18 C77.3137085,18 80,20.6862915 80,24 C80,27.3137085 77.3137085,30 74,30 Z M90,30 C86.6862915,30 84,27.3137085 84,24 C84,20.6862915 86.6862915,18 90,18 C93.3137085,18 96,20.6862915 96,24 C96,27.3137085 93.3137085,30 90,30 Z M58,46 C54.6862915,46 52,43.3137085 52,40 C52,36.6862915 54.6862915,34 58,34 C61.3137085,34 64,36.6862915 64,40 C64,43.3137085 61.3137085,46 58,46 Z M74,46 C70.6862915,46 68,43.3137085 68,40 C68,36.6862915 70.6862915,34 74,34 C77.3137085,34 80,36.6862915 80,40 C80,43.3137085 77.3137085,46 74,46 Z M90,46 C86.6862915,46 84,43.3137085 84,40 C84,36.6862915 86.6862915,34 90,34 C93.3137085,34 96,36.6862915 96,40 C96,43.3137085 93.3137085,46 90,46 Z M42,48 L32,60 L30,60 L30,48 L4,48 C1.790861,48 0,46.209139 0,44 L0,4 C0,1.790861 1.790861,0 4,0 L44,0 C46.209139,0 48,1.790861 48,4 L48,44 C48,46.209139 46.209139,48 44,48 L42,48 Z M24,31.7217391 L33.8666667,39 L30.1333333,27.1391304 L40,20.1304348 L28,20.1304348 L24,8 L20,20.1304348 L8,20.1304348 L17.8666667,27.1391304 L14.1333333,39 L24,31.7217391 Z" id="Combined-Shape" fill="#FFFFFF"></path>
    </g>
</svg>

<svg xmlns="http://www.w3.org/2000/svg" viewBox="0 0 96 60" width="96px" height="60px"><path d="M58 14c-3.3137 0-6-2.6863-6-6s2.6863-6 6-6 6 2.6863 6 6-2.6863 6-6 6zm16 0c-3.3137 0-6-2.6863-6-6s2.6863-6 6-6 6 2.6863 6 6-2.6863 6-6 6zm16 0c-3.3137 0-6-2.6863-6-6s2.6863-6 6-6 6 2.6863 6 6-2.6863 6-6 6zM58 30c-3.3137 0-6-2.6863-6-6s2.6863-6 6-6 6 2.6863 6 6-2.6863 6-6 6zm16 0c-3.3137 0-6-2.6863-6-6s2.6863-6 6-6 6 2.6863 6 6-2.6863 6-6 6zm16 0c-3.3137 0-6-2.6863-6-6s2.6863-6 6-6 6 2.6863 6 6-2.6863 6-6 6zM58 46c-3.3137 0-6-2.6863-6-6s2.6863-6 6-6 6 2.6863 6 6-2.6863 6-6 6zm16 0c-3.3137 0-6-2.6863-6-6s2.6863-6 6-6 6 2.6863 6 6-2.6863 6-6 6zm16 0c-3.3137 0-6-2.6863-6-6s2.6863-6 6-6 6 2.6863 6 6-2.6863 6-6 6zm-48 2L32 60h-2V48H4c-2.20914 0-4-1.79086-4-4V4c0-2.20914 1.79086-4 4-4h40c2.20914 0 4 1.79086 4 4v40c0 2.20914-1.79086 4-4 4h-2zM24 31.72174L33.86667 39l-3.73334-11.86087L40 20.13043H28L24 8l-4 12.13043H8l9.86667 7.0087L14.13333 39 24 31.72174z" fill="#FFF" fill-rule="evenodd"/></svg>
